X: 33840
T: Reconciliation, The
R: reel
M: 4/4
K: Amajor
A2cA eAfA|eAfA ecBc|A2cA eAfA|ecBc AFEF|
A2cA eAfA|eAfA ecBc|ABAF EFAf|ecBc A3B:|
A2ce abaf|efed cdcB|ABce a3g|fbba gefg|
afge f2ec|dBcA BAFB|ABAF EFAf|ecBc A3B:|

